X:199
T:score276
L:1/16
Q:1/4=120
M:2/4
I:linebreak $
K:A
 z4 z2!p! (e2 | a2)gf!<(! e4- | e(cBc defd')!<)! | c'8- |!>(! c'2(c'2 b2a2 | .g2)!>)!(ga !>!g4- | %6
 g)!<(!(gfe ^defd)!<)! | g8- |"_ritard." g2(g2!>(! !fermata!f2)(e2!>)! | a2)"_a tempo"gf e4- | %10
!<(! e(cBc defd')!<)! | c'8 |] %12
